X:1
T:Title
%%score { ( 1 3 ) | ( 2 4 ) }
L:1/8
M:3/4
K:G
V:1 treble nm="Grand Piano"
V:3 treble 
V:2 bass 
V:4 bass 
V:1
 z2 z[Q:1/4=86] [B,D] [B,G][CA] | [DB]3 [=FB] [Ec][CE] | [EA]4 [EG]2 | [DF]3 [Fc] [Gc][Ac] | %4
[M:3/8] B3 | GBc |[M:3/4] d3 [A^d] [^Ge][EB] | d2 c2 [Ec]2 | [Ec]3 [DF] [FB]A |[M:3/8] G3 | %10
 z F[EG] |[M:3/4] [FA]>[FA] [FA]2 [GB][G^c] | [Fd]>[Fd] [Fd]2 [FA]2 | [GB][GB] [Bd]2 [A^c]>[GB] | %14
 [GB][FA] [FA]2 [GB][FA] | [^CFA]>[CEG] [CEG]2 [CFA][CEG] | [A,EG]>F F2 A2 | B2 d2 ^c2 | %18
 [Fd]4 [Fc]2 | B>B B2 [A^d]2 | [Ge]>[Ge] [Ge]2 [G^c]2 |[M:7/8] G2 z z z z2 | %22
[M:9/16] [G,B,DG]4- [G,B,DG]/ |] %23
V:2
 z2 z [G,,G,] [G,,D,][G,,G,] | [G,,G,]3 [G,,G,] [C,G,][C,^G,] | [C,A,]4 [^C,A,]2 | %3
 [D,A,]3 [D,A,] [E,D][F,D] |[M:3/8][K:treble] [G,DG]3 | [G,B,D][G,D][G,A,G] | %6
[M:3/4] [G,B,G]3[K:bass] [F,B,] [E,B,][D,^G,] | [C,A,]4 [C,A,]2 | [D,A,]3 [D,A,] [D,D][D,CD] | %9
[M:3/8] [G,B,D]3 | z [D,A,D][D,D] |[M:3/4] [D,D]>[D,D] [D,D]2 [G,D][E,A,] | %12
 [D,A,]>[D,A,] [D,A,]2 [D,D]2 | [G,D][G,D] [G,D]2 [G,D]>[G,D] | [D,D][D,D] [D,D]2 [D,D][D,D] | %15
 A,,>A,, A,,2 A,,A,, | D,>[D,A,D] [D,A,D]2 [F,D]2 | D2 z2 z2 | [D,A,]4 [D,D]2 | %19
 [G,DG]>[G,DG] [G,DG]2[K:bass] [F,B,]2 | [E,B,]>[E,B,] [E,B,]2 [^D,_B,]2 |[M:7/8] B,2 z z z z2 | %22
[M:9/16] G,,4- G,,/ |] %23
V:3
 x6 | x6 | x6 | x6 |[M:3/8] x3 | x3 |[M:3/4] x6 | E4 z2 | x6 |[M:3/8] x3 | x3 |[M:3/4] x6 | x6 | %13
 x6 | x6 | x6 | x6 | x6 | x6 | x6 | x6 |[M:7/8] d2- [Fd]3 [CDF]2 |[M:9/16] x9/2 |] %23
V:4
 x6 | x6 | x6 | x6 |[M:3/8][K:treble] x3 | x3 |[M:3/4] x3[K:bass] x3 | x6 | x6 |[M:3/8] x3 | x3 | %11
[M:3/4] x6 | x6 | x6 | x6 | x6 | x6 | [G,G]2- [G,B,G]2 [A,G]2 | x6 | x4[K:bass] x2 | x6 | %21
[M:7/8] D,2- [D,A,]3 D,2 |[M:9/16] x9/2 |] %23

